packages/icons/src/gitops-green.svg

<svg fill="none" viewBox="0 0 24 24" xmlns="http://www.w3.org/2000/svg" xmlns:xlink="http://www.w3.org/1999/xlink"><linearGradient id="a" gradientUnits="userSpaceOnUse" x1="5.08089" x2="16.0627" y1="1.50073" y2="22.4568"><stop offset="0" stop-color="#62f91f"/><stop offset="1" stop-color="#45bd35"/></linearGradient><g clip-rule="evenodd" fill-rule="evenodd"><path d="m11.1961 5.15067c.2471-.10478.519-.16274.8043-.16274 1.1391 0 2.0625.92341 2.0625 2.0625 0 .28537-.0579.5572-.1627.80436l2.3444 2.34441c.2976-.1667.6408-.26165 1.0061-.26165 1.1391 0 2.0625.92345 2.0625 2.06245 0 1.1391-.9234 2.0625-2.0625 2.0625s-2.0625-.9234-2.0625-2.0625c0-.3649.0948-.7077.2611-1.0051l-2.2593-2.25935c-.1882.13308-.3996.23542-.6271.29974v6.23031c.8657.2448 1.5 1.0408 1.5 1.9848 0 1.1391-.9234 2.0625-2.0625 2.0625-1.139 0-2.06246-.9234-2.06246-2.0625 0-.9441.63436-1.74 1.49996-1.9848v-6.2303c-.8656-.24485-1.49996-1.04079-1.49996-1.98487 0-.44301.13966-.8534.37736-1.18953l-2.48403-2.48406-3.62078 2.08235c-1.16725.67129-1.89097 1.90778-1.90259 3.25058l-.05776 6.67673c-.01191 1.3774.72694 2.6528 1.92992 3.3315l5.83134 3.2899c1.1728.6616 2.6094.6557 3.7766-.0156l6.0015-3.4515c1.1673-.6713 1.891-1.9078 1.9026-3.2506l.0578-6.67672c.0119-1.37739-.727-2.65283-1.93-3.33151l-5.8313-3.28987c-1.1728-.66165-2.6094-.65572-3.7766.01557l-1.37065.78827zm-.1332 1.89976c0-.51776.4198-.9375.9375-.9375.5178 0 .9375.41974.9375.9375 0 .51777-.4197.9375-.9375.9375-.5177 0-.9375-.41973-.9375-.9375zm0 10.19997c0-.5177.4198-.9375.9375-.9375.5178 0 .9375.4198.9375.9375 0 .5178-.4197.9375-.9375.9375-.5177 0-.9375-.4197-.9375-.9375zm6.1878-6.1879c-.5178 0-.9375.4198-.9375.9375 0 .5178.4197.9375.9375.9375s.9375-.4197.9375-.9375c0-.5177-.4197-.9375-.9375-.9375z" fill="#4f5162"/><path d="m11.1961 5.15067c.2471-.10478.519-.16274.8043-.16274 1.1391 0 2.0625.92341 2.0625 2.0625 0 .28537-.0579.5572-.1627.80436l2.3444 2.34441c.2976-.1667.6408-.26165 1.0061-.26165 1.1391 0 2.0625.92345 2.0625 2.06245 0 1.1391-.9234 2.0625-2.0625 2.0625s-2.0625-.9234-2.0625-2.0625c0-.3649.0948-.7077.2611-1.0051l-2.2593-2.25935c-.1882.13308-.3996.23542-.6271.29974v6.23031c.8657.2448 1.5 1.0408 1.5 1.9848 0 1.1391-.9234 2.0625-2.0625 2.0625-1.139 0-2.06246-.9234-2.06246-2.0625 0-.9441.63436-1.74 1.49996-1.9848v-6.2303c-.8656-.24485-1.49996-1.04079-1.49996-1.98487 0-.44301.13966-.8534.37736-1.18953l-2.48403-2.48406-3.62078 2.08235c-1.16725.67129-1.89097 1.90778-1.90259 3.25058l-.05776 6.67673c-.01191 1.3774.72694 2.6528 1.92992 3.3315l5.83134 3.2899c1.1728.6616 2.6094.6557 3.7766-.0156l6.0015-3.4515c1.1673-.6713 1.891-1.9078 1.9026-3.2506l.0578-6.67672c.0119-1.37739-.727-2.65283-1.93-3.33151l-5.8313-3.28987c-1.1728-.66165-2.6094-.65572-3.7766.01557l-1.37065.78827zm-.1332 1.89976c0-.51776.4198-.9375.9375-.9375.5178 0 .9375.41974.9375.9375 0 .51777-.4197.9375-.9375.9375-.5177 0-.9375-.41973-.9375-.9375zm0 10.19997c0-.5177.4198-.9375.9375-.9375.5178 0 .9375.4198.9375.9375 0 .5178-.4197.9375-.9375.9375-.5177 0-.9375-.4197-.9375-.9375zm6.1878-6.1879c-.5178 0-.9375.4198-.9375.9375 0 .5178.4197.9375.9375.9375s.9375-.4197.9375-.9375c0-.5177-.4197-.9375-.9375-.9375z" fill="url(#a)"/></g></svg>

<svg viewBox="0 0 24 24" fill="none" xmlns="http://www.w3.org/2000/svg">
<path fill-rule="evenodd" clip-rule="evenodd" d="M11.1961 5.15067C11.4432 5.04589 11.7151 4.98793 12.0004 4.98793C13.1395 4.98793 14.0629 5.91134 14.0629 7.05043C14.0629 7.3358 14.005 7.60763 13.9002 7.85479L16.2446 10.1992C16.5422 10.0325 16.8854 9.93755 17.2507 9.93755C18.3898 9.93755 19.3132 10.861 19.3132 12C19.3132 13.1391 18.3898 14.0625 17.2507 14.0625C16.1116 14.0625 15.1882 13.1391 15.1882 12C15.1882 11.6351 15.283 11.2923 15.4493 10.9949L13.19 8.73555C13.0018 8.86863 12.7904 8.97097 12.5629 9.03529V15.2656C13.4286 15.5104 14.0629 16.3064 14.0629 17.2504C14.0629 18.3895 13.1395 19.3129 12.0004 19.3129C10.8614 19.3129 9.93794 18.3895 9.93794 17.2504C9.93794 16.3063 10.5723 15.5104 11.4379 15.2656L11.4379 9.0353C10.5723 8.79045 9.93794 7.99451 9.93794 7.05043C9.93794 6.60742 10.0776 6.19703 10.3153 5.8609L7.83127 3.37684L4.21049 5.45919C3.04324 6.13048 2.31952 7.36697 2.3079 8.70977L2.25014 15.3865C2.23823 16.7639 2.97708 18.0393 4.18006 18.718L10.0114 22.0079C11.1842 22.6695 12.6208 22.6636 13.788 21.9923L19.7895 18.5408C20.9568 17.8695 21.6805 16.633 21.6921 15.2902L21.7499 8.61348C21.7618 7.23609 21.0229 5.96065 19.8199 5.28197L13.9886 1.9921C12.8158 1.33045 11.3792 1.33638 10.212 2.00767L8.84135 2.79594L11.1961 5.15067ZM11.0629 7.05043C11.0629 6.53267 11.4827 6.11293 12.0004 6.11293C12.5182 6.11293 12.9379 6.53267 12.9379 7.05043C12.9379 7.5682 12.5182 7.98793 12.0004 7.98793C11.4827 7.98793 11.0629 7.5682 11.0629 7.05043ZM11.0629 17.2504C11.0629 16.7327 11.4827 16.3129 12.0004 16.3129C12.5182 16.3129 12.9379 16.7327 12.9379 17.2504C12.9379 17.7682 12.5182 18.1879 12.0004 18.1879C11.4827 18.1879 11.0629 17.7682 11.0629 17.2504ZM17.2507 11.0625C16.7329 11.0625 16.3132 11.4823 16.3132 12C16.3132 12.5178 16.7329 12.9375 17.2507 12.9375C17.7685 12.9375 18.1882 12.5178 18.1882 12C18.1882 11.4823 17.7685 11.0625 17.2507 11.0625Z" fill="#4F5162"/>
<path fill-rule="evenodd" clip-rule="evenodd" d="M11.1961 5.15067C11.4432 5.04589 11.7151 4.98793 12.0004 4.98793C13.1395 4.98793 14.0629 5.91134 14.0629 7.05043C14.0629 7.3358 14.005 7.60763 13.9002 7.85479L16.2446 10.1992C16.5422 10.0325 16.8854 9.93755 17.2507 9.93755C18.3898 9.93755 19.3132 10.861 19.3132 12C19.3132 13.1391 18.3898 14.0625 17.2507 14.0625C16.1116 14.0625 15.1882 13.1391 15.1882 12C15.1882 11.6351 15.283 11.2923 15.4493 10.9949L13.19 8.73555C13.0018 8.86863 12.7904 8.97097 12.5629 9.03529V15.2656C13.4286 15.5104 14.0629 16.3064 14.0629 17.2504C14.0629 18.3895 13.1395 19.3129 12.0004 19.3129C10.8614 19.3129 9.93794 18.3895 9.93794 17.2504C9.93794 16.3063 10.5723 15.5104 11.4379 15.2656L11.4379 9.0353C10.5723 8.79045 9.93794 7.99451 9.93794 7.05043C9.93794 6.60742 10.0776 6.19703 10.3153 5.8609L7.83127 3.37684L4.21049 5.45919C3.04324 6.13048 2.31952 7.36697 2.3079 8.70977L2.25014 15.3865C2.23823 16.7639 2.97708 18.0393 4.18006 18.718L10.0114 22.0079C11.1842 22.6695 12.6208 22.6636 13.788 21.9923L19.7895 18.5408C20.9568 17.8695 21.6805 16.633 21.6921 15.2902L21.7499 8.61348C21.7618 7.23609 21.0229 5.96065 19.8199 5.28197L13.9886 1.9921C12.8158 1.33045 11.3792 1.33638 10.212 2.00767L8.84135 2.79594L11.1961 5.15067ZM11.0629 7.05043C11.0629 6.53267 11.4827 6.11293 12.0004 6.11293C12.5182 6.11293 12.9379 6.53267 12.9379 7.05043C12.9379 7.5682 12.5182 7.98793 12.0004 7.98793C11.4827 7.98793 11.0629 7.5682 11.0629 7.05043ZM11.0629 17.2504C11.0629 16.7327 11.4827 16.3129 12.0004 16.3129C12.5182 16.3129 12.9379 16.7327 12.9379 17.2504C12.9379 17.7682 12.5182 18.1879 12.0004 18.1879C11.4827 18.1879 11.0629 17.7682 11.0629 17.2504ZM17.2507 11.0625C16.7329 11.0625 16.3132 11.4823 16.3132 12C16.3132 12.5178 16.7329 12.9375 17.2507 12.9375C17.7685 12.9375 18.1882 12.5178 18.1882 12C18.1882 11.4823 17.7685 11.0625 17.2507 11.0625Z" fill="url(#paint0_linear_23179_168870)"/>
<defs>
<linearGradient id="paint0_linear_23179_168870" x1="5.08089" y1="1.50073" x2="16.0627" y2="22.4568" gradientUnits="userSpaceOnUse">
<stop stop-color="#62F91F"/>
<stop offset="1" stop-color="#45BD35"/>
</linearGradient>
</defs>
</svg>
